!!!COM: Beethoven
!!!OTL: Neun Variationen uber einen Marsch von E. Chr. Dressler
!!!Variation: Variation 9 c
**function	**harm	**kern	**kern
*M4/4	*M4/4	*staff1	*staff2
*tb16	*	*	*
=-	=-	=-	=-
*	*	*clefG2	*clefF4
*	*	*k[b-e-a-]	*k[b-e-a-]
*	*	*M4/4	*M4/4
*	*	*c:	*c:
1A	1V/ii	16r	2A 2c# 2e
.	.	16aLL	.
.	.	16b	.
.	.	16cc#JJ	.
.	.	16ddLL	.
.	.	16ee	.
.	.	16ff#	.
.	.	16gg#JJ	.
.	.	16aaLL	2r
.	.	16a	.
.	.	16b	.
.	.	16cc#JJ	.
.	.	16ddLL	.
.	.	16ee	.
.	.	16ff#	.
.	.	16gg#JJ	.
=	=	=162	=162
1A	1V/ii	16aaLL	4r
.	.	16bb	.
.	.	16ccc#	.
.	.	16dddJJ	.
.	.	16eeeLL	4A 4c#
.	.	16ddd	.
.	.	16ccc#	.
.	.	16bbJJ	.
.	.	16aaLL	4B- 4d
.	.	16gg#	.
.	.	16aa	.
.	.	16bb-JJ	.
.	.	16aaLL	4c# 4e
.	.	16gg	.
.	.	16ff	.
.	.	16eeJJ	.
=	=	=163	=163
1PD	1ii	16ffLL	4d 4f
.	.	16dd	.
.	.	16cc	.
.	.	16b-JJ	.
.	.	16aLL	4r
.	.	16g	.
.	.	16f	.
.	.	16eJJ	.
.	.	16dLL	2r
.	.	16f	.
.	.	16a	.
.	.	16ddJJ	.
.	.	16fLL	.
.	.	16a	.
.	.	16dd	.
.	.	16ffJJ	.
=	=	=164	=164
1PD	1ii	2f	16DLL
.	.	.	16d
.	.	.	16c
.	.	.	16B-JJ
.	.	.	16ALL
.	.	.	16G
.	.	.	16F
.	.	.	16EJJ
.	.	2r	16DLL
.	.	.	16F
.	.	.	16A
.	.	.	16dJJ
.	.	.	16FLL
.	.	.	16A
.	.	.	16d
.	.	.	16fJJ
=	=	=165	=165
1D	1V	16r	2G 2B 2d
.	.	16gLL	.
.	.	16a	.
.	.	16bJJ	.
.	.	16ccLL	.
.	.	16dd	.
.	.	16ee	.
.	.	16ff#JJ	.
.	.	16ggLL	2r
.	.	16g	.
.	.	16a	.
.	.	16bJJ	.
.	.	16ccLL	.
.	.	16dd	.
.	.	16ee	.
.	.	16ff#JJ	.
=	=	=166	=166
1D	1V	16ggLL	4r
.	.	16aa	.
.	.	16bb	.
.	.	16cccJJ	.
.	.	16dddLL	4G 4B
.	.	16ccc	.
.	.	16bb	.
.	.	16aaJJ	.
.	.	16ggLL	4A 4c
.	.	16ff#	.
.	.	16gg	.
.	.	16aaJJ	.
.	.	16ggLL	4B 4d
.	.	16ff	.
.	.	16ee	.
.	.	16ddJJ	.
=	=	=167	=167
1T	1I	16eeLL	2c 2e
.	.	16cc	.
.	.	16b	.
.	.	16aJJ	.
.	.	16gLL	.
.	.	16f	.
.	.	16e	.
.	.	16dJJ	.
.	.	16cLL	2r
.	.	16e	.
.	.	16g	.
.	.	16ccJJ	.
.	.	16eLL	.
.	.	16g	.
.	.	16cc	.
.	.	16eeJJ	.
=	=	=168	=168
1T	1I	2e	16CLL
.	.	.	16c
.	.	.	16B
.	.	.	16AJJ
.	.	.	16GLL
.	.	.	16F
.	.	.	16E
.	.	.	16DJJ
.	.	2r	16CLL
.	.	.	16E
.	.	.	16G
.	.	.	16cJJ
.	.	.	16ELL
.	.	.	16G
.	.	.	16c
.	.	.	16eJJ
==	==	=169	=169
*-	*-	*-	*-
